battery-unknown.svg

<svg fill="currentColor" viewBox="0 0 24 24"><path d="m15.07 12.25-.9.92c-.54.54-.92 1.01-1.08 1.83h-2.04c.11-.9.51-1.72 1.12-2.33l1.24-1.26c.37-.36.59-.86.59-1.41a2 2 0 0 0-2-2 2 2 0 0 0-2 2H8a4 4 0 0 1 4-4 4 4 0 0 1 4 4c0 .88-.36 1.68-.93 2.25M13 19h-2v-2h2m3.67-13H15V2H9v2H7.33A1.33 1.33 0 0 0 6 5.33v15.33C6 21.4 6.6 22 7.33 22h9.34c.73 0 1.33-.6 1.33-1.34V5.33C18 4.59 17.4 4 16.67 4"/></svg>

<svg  viewBox="0 0 24 24" fill="currentColor"><path  d="M15.07,12.25L14.17,13.17C13.63,13.71 13.25,14.18 13.09,15H11.05C11.16,14.1 11.56,13.28 12.17,12.67L13.41,11.41C13.78,11.05 14,10.55 14,10C14,8.89 13.1,8 12,8A2,2 0 0,0 10,10H8A4,4 0 0,1 12,6A4,4 0 0,1 16,10C16,10.88 15.64,11.68 15.07,12.25M13,19H11V17H13M16.67,4H15V2H9V4H7.33A1.33,1.33 0 0,0 6,5.33V20.66C6,21.4 6.6,22 7.33,22H16.67C17.4,22 18,21.4 18,20.66V5.33C18,4.59 17.4,4 16.67,4Z"/></svg>
